X: 112
T:The Street Player
R:Hornpipe
C:Ed Reavy
M:4/4
L:1/8
Z:Joe Reavy
N:Dedicated to Tom and Jim McCafferty, the great 
N:street players who played in towns of Cavan 
N:and nearby Monaghan in the early years of 
N:this century.
K:D
FE|DFAd (3fgf ec|dcde fdAF|GFED CDEF|GBAF EA,CE|
FDA,D FGA=c|BGBG ^cdeg|fagf edcd|(3efe d2 d2:|
eg|(3faf dc dfaf|gbed cdeg|fg (3agf gfed|
(3cBA (3BA^G A=GFE|FDFA dAFA|GFGB edcB|Adfa gecd|
(3efe d2 d2:|
